img/waves.svg

<?xml version="1.0" encoding="UTF-8"?>
<svg width="6249px" height="1401px" viewBox="0 0 6249 1401" version="1.1" xmlns="http://www.w3.org/2000/svg" xmlns:xlink="http://www.w3.org/1999/xlink">
    <!-- Generator: Sketch 46 (44423) - http://www.bohemiancoding.com/sketch -->
    <title>waves</title>
    <desc>Created with Sketch.</desc>
    <defs>
        <linearGradient x1="0.726298109%" y1="50%" x2="100%" y2="50%" id="linearGradient-1">
            <stop stop-color="#8542DD" offset="0%"></stop>
            <stop stop-color="#BB42DD" offset="100%"></stop>
        </linearGradient>
        <path d="M0,308 C1338.0354,1083.08333 2430.94161,1179.38542 3278.71862,596.90625 C4126.49562,14.4270833 5116.58942,-141.510417 6249,129.09375 L6249,1401 L0,1401 L0,308 Z" id="path-2"></path>
        <path d="M0,612.03272 C1289.5625,1142.81394 2350.33333,1142.81394 3182.3125,612.03272 C4014.29167,81.2514967 5036.52083,21.6754657 6249,433.304627 L6249,1401 L0,1401 L0,612.03272 Z" id="path-3"></path>
    </defs>
    <g id="Page-1" stroke="none" stroke-width="1" fill="none" fill-rule="evenodd">
        <g id="waves">
            <g id="Rectangle-6">
                <use fill-opacity="0.8" fill="url(#linearGradient-1)" fill-rule="evenodd" xlink:href="#path-2"></use>
                <path stroke="#979797" stroke-width="1" d="M6248.5,1400.5 L6249,1400.5 L6248.5,1401 L6248.5,1400.5 Z M0.5,308.86741 L0.5,1400.5 L6248.5,1400.5 L6248.5,129.488361 C5116.38259,-140.957069 4126.56201,14.9881134 3279.00176,597.318354 C2431.2004,1179.81425 1338.34462,1083.63949 0.5,308.867409 Z"></path>
            </g>
            <g id="Rectangle-6-Copy">
                <use fill="url(#linearGradient-1)" fill-rule="evenodd" xlink:href="#path-3"></use>
                <path stroke="#979797" stroke-width="1" d="M6248.5,1400.5 L6249,1400.5 L6248.5,1401 L6248.5,1400.5 Z M0.5,612.779175 L0.5,1400.5 L6248.5,1400.5 L6248.5,433.662919 C5036.3039,22.2056965 4014.34432,81.810993 3182.58142,612.454243 C2350.59738,1143.23858 1289.88922,1143.33328 0.5,612.779175 Z"></path>
            </g>
        </g>
    </g>
</svg>

<svg width="6249" height="1401" xmlns="http://www.w3.org/2000/svg" xmlns:xlink="http://www.w3.org/1999/xlink"><defs><linearGradient x1=".726%" y1="50%" y2="50%" id="a"><stop stop-color="#8542DD" offset="0%"/><stop stop-color="#BB42DD" offset="100%"/></linearGradient><path d="M0 308c1338.035 775.083 2430.942 871.385 3278.719 288.906S5116.589-141.51 6249 129.094V1401H0V308z" id="b"/><path d="M0 612.033c1289.563 530.78 2350.333 530.78 3182.313 0C4014.292 81.25 5036.52 21.675 6249 433.305V1401H0V612.033z" id="c"/></defs><g fill="none" fill-rule="evenodd"><use fill-opacity=".8" fill="url(#a)" xlink:href="#b"/><path stroke="#979797" d="M6248.5 1400.5h.5l-.5.5v-.5zM.5 308.867V1400.5h6248V129.488c-1132.117-270.445-2121.938-114.5-2969.498 467.83C2431.2 1179.814 1338.345 1083.64.5 308.868z"/><g><use fill="url(#a)" xlink:href="#c"/><path stroke="#979797" d="M6248.5 1400.5h.5l-.5.5v-.5zM.5 612.78v787.72h6248V433.663C5036.304 22.206 4014.344 81.81 3182.581 612.454 2350.597 1143.24 1289.89 1143.334.5 612.78z"/></g></g></svg>
